packages/astro-components-stencil/src/icons/notifications-none.svg

<svg width="24" height="24" viewBox="0 0 24 24" fill="none" xmlns="http://www.w3.org/2000/svg">
<path fill-rule="evenodd" clip-rule="evenodd" d="M19.29 17.29L18 16V11C18 7.93 16.36 5.36 13.5 4.68V4C13.5 3.17 12.83 2.5 12 2.5C11.17 2.5 10.5 3.17 10.5 4V4.68C7.62999 5.36 5.99999 7.92 5.99999 11V16L4.70999 17.29C4.07999 17.92 4.51999 19 5.40999 19H18.58C19.48 19 19.92 17.92 19.29 17.29ZM7.99999 17V11C7.99999 8.52 9.50999 6.5 12 6.5C14.49 6.5 16 8.52 16 11V17H7.99999ZM14 20C14 21.1 13.1 22 12 22C10.89 22 9.99999 21.1 9.99999 20H14Z" fill="black"/>
</svg>

<svg xmlns="http://www.w3.org/2000/svg" viewBox="0 0 24 24"><g xmlns="http://www.w3.org/2000/svg" id="notifications-none" fill-rule="nonzero">
            <path d="M19.29 17.29L18 16v-5c0-3.07-1.64-5.64-4.5-6.32V4c0-.83-.67-1.5-1.5-1.5s-1.5.67-1.5 1.5v.68C7.63 5.36 6 7.92 6 11v5l-1.29 1.29c-.63.63-.19 1.71.7 1.71h13.17c.9 0 1.34-1.08.71-1.71zM16 17H8v-6c0-2.48 1.51-4.5 4-4.5s4 2.02 4 4.5v6zm-4 5c1.1 0 2-.9 2-2h-4a2 2 0 002 2z"/>
        </g></svg>
